X: 17638
T: Hole In The Hedge, The
R: jig
M: 6/8
K: Cmajor
|:C2E EDE|GED E2D|C2E EDE|GEC D2E|
C2E EDE|GEG c3|cde dcA|1 GEC D2E:|2 GEC D2B||
|:c2e dcA|~G3 GAB|c2e dcA|GEC D2B|
c2e dcA|~G3 GAB|~c3 AcA|1 GEC D2B:|2 GEC D2E||

